brandFactory_export/2.Regular/Hamburguesa_2Regular.svg

<?xml version="1.0" encoding="UTF-8"?>
<svg width="24px" height="24px" viewBox="0 0 24 24" version="1.1" xmlns="http://www.w3.org/2000/svg" xmlns:xlink="http://www.w3.org/1999/xlink">
    <title>2.Regular/Hamburguesa_2Regular</title>
    <g id="Symbols" stroke="none" stroke-width="1" fill="none" fill-rule="evenodd">
        <g id="2.Regular/Hamburguesa_2Regular" fill="#5CB615" fill-rule="nonzero">
            <path d="M22.0504202,7.1092437 C21.9462185,7.21680672 21.7411765,7.23697479 21.5865546,7.23697479 L21.5865546,7.25042017 L13.3008403,7.25042017 L13.3008403,7.23697479 C13.1495798,7.23697479 12.9478992,7.21680672 12.8436975,7.11260504 C12.7361345,7.00504202 12.7159664,6.78991597 12.7159664,6.62521008 C12.7159664,6.46386555 12.7394958,6.24537815 12.8470588,6.14117647 C12.9512605,6.03697479 13.1529412,6.01680672 13.3042017,6.01680672 L21.589916,6.01680672 C21.7445378,6.01680672 21.9462185,6.03697479 22.0504202,6.14453782 C22.1579832,6.2487395 22.1815126,6.46722689 22.1815126,6.62857143 C22.1781513,6.78991597 22.1579832,7.00504202 22.0504202,7.1092437 L22.0504202,7.1092437 Z M20.9680672,13.5563025 C20.712605,19.0487395 20.712605,19.0588235 20.712605,19.0890756 C20.6890756,21.7613445 20.0638655,22.0436975 19.3142857,22.1243697 C19.2941176,22.1277311 19.2773109,22.1310924 19.2571429,22.1310924 L19.2268908,22.1310924 C19.0789916,22.1411765 18.9647059,22.1445378 18.7226891,22.1277311 L16.0168067,22.1310924 C15.9428571,22.1378151 15.8689076,22.1411765 15.7882353,22.1411765 L15.7445378,22.1411765 C15.9193277,21.7613445 16.0436975,21.3344538 16.1680672,20.8840336 L16.2016807,20.7731092 C16.605042,20.6420168 16.9512605,20.4403361 17.2403361,20.1546218 C17.794958,19.6033613 18.0739496,18.8268908 18.0739496,17.8420168 C18.0739496,17.0789916 17.8991597,16.4436975 17.5663866,15.9361345 C18.2016807,15.902521 18.8067227,15.6033613 19.3613445,15.0252101 C19.9663866,14.4 20.2655462,13.7142857 20.2521008,12.9983193 C20.2386555,12.3092437 19.9394958,11.6537815 19.3579832,11.0521008 C18.7764706,10.4537815 18.1445378,10.1445378 17.4823529,10.1344538 C16.7764706,10.1378151 16.1344538,10.4336134 15.5327731,11.0621849 C15.3647059,11.2369748 15.2235294,11.4151261 15.1058824,11.6 C14.7294118,11.2168067 14.2857143,10.9310924 13.7714286,10.7361345 C13.7411765,9.95294118 13.7142857,9.27058824 13.7008403,8.78655462 L21.1932773,8.78655462 C21.1428571,9.80840336 21.0554622,11.6840336 20.9680672,13.5563025 L20.9680672,13.5563025 Z M16.1210084,13.0554622 C16.1176471,12.7697479 16.2689076,12.4605042 16.5781513,12.1411765 C16.8840336,11.8218487 17.1764706,11.6638655 17.4521008,11.6638655 L17.4655462,11.6638655 C17.7310924,11.6672269 18.0201681,11.8252101 18.3159664,12.1344538 C18.6184874,12.4470588 18.7697479,12.7462185 18.7764706,13.0252101 C18.7831933,13.3109244 18.6252101,13.6201681 18.3159664,13.9428571 C18.010084,14.2621849 17.7310924,14.3966387 17.4352941,14.4134454 C17.1663866,14.410084 16.8806723,14.2487395 16.5781513,13.9394958 C16.2789916,13.6302521 16.1243697,13.3310924 16.1210084,13.0554622 L16.1210084,13.0554622 Z M14.0806723,19.3915966 L2.8605042,19.3915966 C2.43697479,19.3613445 2.09747899,19.2605042 1.88571429,19.0487395 C1.63697479,18.8 1.51260504,18.3932773 1.51260504,17.8420168 C1.51260504,17.3848739 1.60336134,17.0352941 1.77478992,16.7831933 C1.93277311,17.1058824 2.14789916,17.4218487 2.43697479,17.7210084 C3.06218487,18.3697479 3.73781513,18.6957983 4.44369748,18.6957983 L4.48739496,18.6957983 C5.18319328,18.6823529 5.84537815,18.3563025 6.45714286,17.7210084 C6.89747899,17.2638655 7.17647059,16.7798319 7.30756303,16.2756303 L15.1462185,16.2756303 C15.6201681,16.2857143 15.9865546,16.4033613 16.2151261,16.6285714 C16.4672269,16.8806723 16.594958,17.2907563 16.594958,17.8420168 C16.594958,18.3932773 16.4672269,18.8 16.2151261,19.0487395 C16.0033613,19.2605042 15.6638655,19.3613445 15.2403361,19.3915966 L14.0806723,19.3915966 L14.0806723,19.3915966 Z M14.4336134,21.4655462 C14.2386555,21.902521 13.9932773,22.0336134 13.3815126,22.1042017 L13.102521,22.107563 L12.2420168,22.1210084 L11.3478992,22.1176471 L6.72268908,22.1210084 C6.56134454,22.1310924 5.55294118,22.1411765 5.39495798,22.1411765 C4.18487395,22.1411765 3.86218487,21.912605 3.51932773,20.9243697 L14.6252101,20.9243697 C14.5546218,21.1428571 14.497479,21.3210084 14.4336134,21.4655462 L14.4336134,21.4655462 Z M5.69747899,16.2756303 C5.62016807,16.3966387 5.52941176,16.5142857 5.41176471,16.6386555 C5.08235294,16.9815126 4.75966387,17.1596639 4.46386555,17.1663866 C4.10420168,17.1764706 3.82184874,16.994958 3.48235294,16.6386555 C3.36134454,16.5176471 3.27394958,16.3966387 3.19327731,16.2756303 L5.69747899,16.2756303 Z M5.86890756,11.9663866 C5.95630252,11.9563025 6.38655462,11.9630252 6.76638655,11.9697479 L11.3915966,11.9663866 C11.5260504,11.9731092 11.6672269,11.9697479 11.8151261,11.9697479 C12,11.9697479 12.1680672,11.9630252 12.3361345,11.9798319 C12.9478992,12.0369748 13.4386555,12.2084034 13.8319328,12.5109244 C14.4067227,12.9512605 14.7798319,13.6672269 15.005042,14.7462185 L3.1092437,14.7462185 C3.54957983,12.6722689 4.47058824,12.1210084 5.70084034,11.9865546 L5.86890756,11.9663866 Z M17.1092437,1.91932773 C17.1092437,1.72436975 17.2605042,1.56638655 17.4487395,1.56638655 C17.6369748,1.56638655 17.7882353,1.72436975 17.7882353,1.91932773 L17.7882353,4.49411765 L17.1092437,4.49411765 L17.1092437,1.91932773 Z M19.2705882,23.6504202 L19.4016807,23.6504202 C19.4756303,23.6504202 19.5294118,23.6504202 19.6067227,23.6369748 C21.8453782,23.3142857 22.1680672,21.1663866 22.1882353,19.1193277 C22.1915966,18.9983193 22.3159664,16.3193277 22.4403361,13.6268908 C22.5882353,10.4705882 22.6521008,9.10252101 22.6789916,8.50084034 C22.8201681,8.42016807 22.9546218,8.32941176 23.0722689,8.21512605 C23.3378151,7.94957983 23.6537815,7.45882353 23.6537815,6.62521008 C23.6537815,5.79495798 23.3378151,5.30084034 23.0722689,5.03865546 C22.8067227,4.7697479 22.4672269,4.53781513 22.0638655,4.48739496 C22.0268908,4.48067227 21.9529412,4.48067227 21.912605,4.48067227 L19.2605042,4.48067227 L19.2605042,1.91596639 C19.2605042,0.877310924 18.4470588,0.0302521008 17.4453782,0.0302521008 C16.4470588,0.0302521008 15.6302521,0.87394958 15.6302521,1.91596639 L15.6302521,4.48067227 L13.3008403,4.48067227 C12.6823529,4.48067227 12.1815126,4.66554622 11.8151261,5.03865546 C11.5529412,5.30084034 11.2369748,5.79495798 11.2369748,6.62521008 C11.2369748,7.45882353 11.5529412,7.94621849 11.8184874,8.21512605 C11.9361345,8.32941176 12.0672269,8.42016807 12.2084034,8.50084034 C12.2218487,8.84369748 12.2420168,9.43193277 12.2789916,10.4470588 C12.1243697,10.4369748 11.9798319,10.4302521 11.8151261,10.4302521 C11.6336134,10.4302521 11.4689076,10.4369748 11.3378151,10.4336134 L6.81344538,10.4369748 C6.47058824,10.4369748 6.0605042,10.4302521 5.81512605,10.4336134 C5.76470588,10.4336134 5.65714286,10.4403361 5.61008403,10.4436975 C5.54621849,10.4504202 5.43865546,10.4638655 5.36134454,10.4806723 C2.58151261,10.8806723 1.83529412,13.1798319 1.54957983,15.0521008 C1.29411765,15.1798319 1.05546218,15.3277311 0.857142857,15.5294118 C0.309243697,16.0806723 0.0302521008,16.8605042 0.0302521008,17.8453782 C0.0302521008,18.8302521 0.312605042,19.610084 0.857142857,20.1579832 C1.14621849,20.4470588 1.50588235,20.6521008 1.91596639,20.7831933 C2.40336134,22.4235294 2.91764706,23.6571429 5.38823529,23.6571429 C5.56302521,23.6571429 6.65882353,23.6672269 6.7697479,23.6571429 L11.2941176,23.6537815 L19.2705882,23.6537815 L19.2705882,23.6504202 Z" id="Hamburguesa_2Regular"></path>
        </g>
    </g>
</svg>

<svg width="24" height="24" viewBox="0 0 24 24" xmlns="http://www.w3.org/2000/svg"><path d="M22.05 7.11c-.104.107-.309.127-.463.127v.013H13.3v-.013c-.151 0-.353-.02-.457-.124-.108-.108-.128-.323-.128-.488 0-.161.023-.38.131-.484.104-.104.306-.124.457-.124h8.286c.155 0 .356.02.46.128.108.104.132.322.132.484-.004.16-.024.376-.132.48zm-1.082 6.446c-.255 5.493-.255 5.503-.255 5.533-.024 2.672-.65 2.955-1.399 3.035-.02.004-.037.007-.057.007h-.03c-.148.01-.262.014-.504-.003l-2.706.003c-.074.007-.148.01-.229.01h-.043c.174-.38.299-.807.423-1.257l.034-.11c.403-.132.75-.334 1.038-.62.555-.55.834-1.327.834-2.312 0-.763-.175-1.398-.508-1.906.636-.033 1.24-.333 1.795-.91.605-.626.905-1.312.891-2.028-.013-.689-.313-1.344-.894-1.946-.582-.598-1.213-.907-1.876-.918-.706.004-1.348.3-1.95.928a3.44 3.44 0 00-.426.538 3.66 3.66 0 00-1.335-.864c-.03-.783-.057-1.465-.07-1.95h7.492c-.05 1.022-.138 2.898-.225 4.77zm-4.847-.5c-.003-.286.148-.595.457-.915.306-.32.598-.477.874-.477h.014c.265.003.554.161.85.47.302.313.454.612.46.891.007.286-.15.595-.46.918-.306.32-.585.454-.88.47-.27-.003-.555-.164-.858-.474-.299-.309-.454-.608-.457-.884zm-2.04 6.336H2.86c-.424-.03-.764-.131-.975-.343-.249-.249-.373-.656-.373-1.207 0-.457.09-.807.262-1.059.158.323.373.639.662.938.625.649 1.3.975 2.007.975h.043c.696-.014 1.358-.34 1.97-.975.44-.457.72-.941.85-1.445h7.84c.473.01.84.127 1.068.353.252.252.38.662.38 1.213s-.128.958-.38 1.207c-.212.212-.551.312-.975.343h-1.16zm.353 2.074c-.195.437-.44.568-1.052.638l-.28.004-.86.013-.894-.003-4.625.003c-.162.01-1.17.02-1.328.02-1.21 0-1.533-.228-1.876-1.217h11.106c-.07.219-.128.397-.191.542zm-8.737-5.19a2.403 2.403 0 01-.285.363c-.33.343-.652.52-.948.527-.36.01-.642-.171-.982-.527a2.277 2.277 0 01-.289-.363h2.504zm.172-4.31c.087-.01.518-.003.897.004l4.626-.004c.134.007.275.004.423.004.185 0 .353-.007.521.01.612.057 1.103.228 1.496.53.575.441.948 1.157 1.173 2.236H3.109c.44-2.074 1.362-2.625 2.592-2.76l.168-.02zM17.109 1.92c0-.195.152-.353.34-.353.188 0 .34.158.34.353v2.575h-.68V1.92zm2.162 21.731h.13c.075 0 .128 0 .206-.013 2.238-.323 2.561-2.47 2.581-4.518.004-.12.128-2.8.252-5.492.148-3.156.212-4.524.239-5.126.141-.08.276-.172.393-.286.266-.265.582-.756.582-1.59 0-.83-.316-1.324-.582-1.586-.265-.27-.605-.501-1.008-.552-.037-.006-.111-.006-.151-.006H19.26V1.916C19.26.877 18.447.03 17.445.03c-.998 0-1.815.844-1.815 1.886v2.565H13.3c-.618 0-1.118.185-1.485.558-.262.262-.578.756-.578 1.586 0 .834.316 1.321.581 1.59.118.114.25.205.39.286.014.343.034.93.071 1.946-.155-.01-.3-.017-.464-.017-.181 0-.346.007-.477.004l-4.525.003c-.342 0-.752-.007-.998-.003a2.632 2.632 0 00-.454.047c-2.78.4-3.526 2.699-3.811 4.571a2.544 2.544 0 00-.693.477C.31 16.081.03 16.861.03 17.845c0 .985.283 1.765.827 2.313.29.29.649.494 1.059.625.487 1.64 1.002 2.874 3.472 2.874.175 0 1.27.01 1.382 0l4.524-.003h7.977v-.004z" fill="#5CB615" fill-rule="nonzero"/></svg>
